icons/accessibility-inset-16.svg

<svg width="16" height="16" viewBox="0 0 16 16">
  <path fill-rule="evenodd" clip-rule="evenodd"
    d="M8 0C3.58172 0 0 3.58172 0 8C0 12.4183 3.58172 16 8 16C12.4183 16 16 12.4183 16 8C16 3.58172 12.4183 0 8 0ZM8 6C9.10457 6 10 5.10457 10 4C10 2.89543 9.10457 2 8 2C6.89543 2 6 2.89543 6 4C6 5.10457 6.89543 6 8 6ZM8 6H3.75C3.33579 6 3 6.33579 3 6.75C3 7.16421 3.33579 7.5 3.75 7.5H6.1588C6.14858 7.54974 6.14029 7.60024 6.13402 7.65143L5.82691 10.1588L5.50427 13.1701C5.46014 13.582 5.75825 13.9516 6.1701 13.9957C6.58196 14.0399 6.95161 13.7418 6.99573 13.3299L7.24537 11H8.75464L9.00427 13.3299C9.0484 13.7418 9.41804 14.0399 9.8299 13.9957C10.2418 13.9516 10.5399 13.582 10.4957 13.1701L10.1744 10.1701L9.86598 7.65143C9.85971 7.60024 9.85143 7.54974 9.8412 7.5H12.25C12.6642 7.5 13 7.16421 13 6.75C13 6.33579 12.6642 6 12.25 6H8Z"
  />
</svg>

<svg xmlns="http://www.w3.org/2000/svg" width="16" height="16" viewBox="0 0 16 16"><path fill-rule="evenodd" d="M8 0a8 8 0 1 0 0 16A8 8 0 0 0 8 0Zm0 6a2 2 0 1 0 0-4 2 2 0 0 0 0 4Zm0 0H3.75a.75.75 0 0 0 0 1.5h2.409a1.9 1.9 0 0 0-.025.151l-.307 2.508-.323 3.011a.75.75 0 1 0 1.492.16l.25-2.33h1.509l.25 2.33a.75.75 0 1 0 1.49-.16l-.32-3-.309-2.519a1.895 1.895 0 0 0-.025-.151h2.409a.75.75 0 0 0 0-1.5H8Z"/></svg>
